X: 1
T: Yismechu hashamayim [Dm]
C: Psalm 96:11
O: Trad Hassidic
M: C
L: 1/8
K: Dm
"A"\
|: "Dm"DD A,D F2 "A7"E2 | "Dm"D6 "C7"z2 \
| "F"FF CF A2  "C7"G2 | "F"F6 z2 \
| "F"AA FA c2 "D7"BA | "Gm"G4 d3 F \
| "Dm"AG GF "A7"FE ED |1 "Dm"F6 z2 :|2 "Dm"D6 Hz2 :|
"B"\
|: "Dm"FG "Gm"GF "Dm"F4 | "Dm"FG "Gm"GF "Dm"F4 \
|  "Dm"FG "Gm"GF "Dm"FE ED |1 "Dm"F2 "Gm"G2 "A7"A4 :|2 "Dm"F2 "A7"E2 "Dm"D4 ||
"C"\
|: "F"AB "C7"BA "F"A4 | "F"AB "C7"BA "F"A4 \
|  "F"AB "C7"BA "F"AG GF |1 "F"A2 "C7"B2 "F"c4 :|2 "F"A2 "C"G4 "Dm"F4 ||
%%text Sometimes ends with another part B.
%"B"\
%|: "Dm"FG "Gm"GF "Dm"F4 | "Dm"FG "Gm"GF "Dm"F4 \
%|  "Dm"FG "Gm"GF "Dm"FE ED |1 "Dm"F2 "Gm"G2 "A7"A4 :|2 "Dm"F2 "A7"E2 "Dm"D4 "d.C."|]
%%sep 2 1 500
%%sep 2 1 500
